X:1
T:Title
%%score { 1 | 2 }
L:1/8
Q:1/4=110
M:4/4
K:Bb
V:1 treble nm="Grand Piano"
V:2 bass 
V:1
 D2 D2 D2 [CE][_D=E] | [DF]2 [DF]2 [DF]2 [DG][DA] | [Dc]2 [DB]2 [Ge]2 [Fd]2 | G6 z2 | %4
w: J.~Lincoln~Hall * * * *||||
 E2 E2 E2 F^F | G2 G2 G2 ^FG | d2 c2 d2 c2 | [DF]6 z2 | D2 D2 D2 [CE][_D=E] | %9
w: |||||
 [DF]2 [DF]2 [DF]2 [DG][DA] | [Dc]2 [DB]2 [Ge]2 [Fd]2 | G6 z2 | B2 B2 B2 AG | B2 B2 B2 AG | %14
w: |||||
 F2 G2 F2 c2 |[M:5/8] [DB]- [DB]3 z |[M:3/8] [Fd][Ec][DB] |[M:4/4] [DF]2 [DG]2 [DB]2 [DG]2 | %18
w: ||||
 B2 A2- Aedc | F2 G2 A2 G2 |[M:5/8] [_DG]2 [=DF]3 |[M:3/8] [Fd][Ec][DB] | %22
w: ||||
[M:4/4] [DF]2 [DG]2 [DB]2 [DG]2 | [CFA]2 [Fc]2- [Fc][Fc][F=B][Fc] | [G=e]2 [Gd]2 [=EB]2 [EG]2 | %25
w: |||
 c4- cdcB | [DF]2 [DG]2 [DB]2 [DG]2 | B2 A2- Aedc | F2 G2 A2 G2 |[M:5/8] [_DG]2 [=DF]3 | %30
w: |||||
[M:3/8] [Fd][Ec][DB] |[M:4/4] [DF]2 B2 c2 d2 | [Gf]2 [Ge]2 [Gd]2 [Gc]2 | [FB]4 [EA]4 | [DB]6 z2 |] %35
w: |||||
V:2
 [B,,F,B,]2 [B,,F,B,]2 [B,,F,B,]2 [B,,F,][B,,F,] | [B,,B,]2 [B,,B,]2 [B,,B,]2 [B,,B,][B,,B,] | %2
 [B,,B,]2 [B,,B,]2 [B,,B,]2 [B,,B,]2 | [E,B,E]6 z2 | [F,A,C]2 [F,A,C]2 [F,A,C]2 [F,A,D][F,A,D] | %5
 [F,A,E]2 [F,A,E]2 [F,A,E]2 [F,A,E][F,A,E] | [F,A,F]2 [F,A,E]2 [F,A,F]2 [F,A,E]2 | [B,,B,]6 z2 | %8
 [B,,F,B,]2 [B,,F,B,]2 [B,,F,B,]2 [B,,F,][B,,F,] | [B,,B,]2 [B,,B,]2 [B,,B,]2 [B,,B,][B,,B,] | %10
 [B,,B,]2 [B,,B,]2 [B,,B,]2 [B,,B,]2 | [E,B,E]6 z2 | [^F,_D=E]2 [F,DE]2 [=F,=DF]2 A,G, | %13
 [^F,_D=E]2 [F,DE]2 [=F,=DF]2 A,G, | [F,A,E]2 [F,A,E]2 [F,A,E]2 [F,A,E]2 | %15
[M:5/8] [B,,B,]- [B,,B,]3 z |[M:3/8] [B,,B,][B,,B,][B,,B,] | %17
[M:4/4] [B,,B,]2 [B,,B,]2 [B,,B,]2 [B,,B,]2 | [F,CE]2 [F,CE]2- [F,CE][F,A,G][F,A,F][F,A,E] | %19
 [F,A,E]2 [F,B,E]2 [F,CE]2 [F,A,E]2 |[M:5/8] [B,,B,]-[B,,B,]- [B,,B,]3 | %21
[M:3/8] [B,,B,][B,,B,][B,,B,] |[M:4/4] [B,,B,]2 [B,,B,]2 [B,,B,]2 B,,2 | %23
 C,2 [C,A,]2- [C,A,][C,A,][C,A,][C,A,] | [C,B,]2 [C,B,]2 [C,G,]2 [C,B,]2 | %25
 [F,A,E]4- [F,A,E][F,B,F][F,A,E][F,B,D] | [B,,B,]2 [B,,B,]2 [B,,B,]2 [B,,B,]2 | %27
 [F,CE]2 [F,CE]2- [F,CE][F,A,G][F,A,F][F,A,E] | [F,A,E]2 [F,B,E]2 [F,CE]2 [F,A,E]2 | %29
[M:5/8] [B,,B,]-[B,,B,]- [B,,B,]3 |[M:3/8] [B,,B,][B,,B,][B,,B,] | %31
[M:4/4] [B,,B,]2[K:treble] [B,DF]2 [B,EA]2 [B,F_A]2 | [E,E]2 [E,B,]2 [D,=B,]2 [E,C]2 | %33
 [F,D]4 [F,C]4 | [B,,F,B,]6 z2 |] %35

